X: 12331
T: Falcarragh, The
R: hornpipe
M: 4/4
K: Gmajor
dc|:BGcG dGeG|defa g2 gf|gece dBGB|Add^c ded=c|
BGcG dGeG|defa g2 gf|gece dBAF|1 DGGF G2 dc:|2 DGGF G2 ga||
bd^cd ad=cd|gdAB G2 gf|gece dBGB|Add^c dega|
bd^cd ad=cd|gdAB G2 gf|gece dBAF|1 DGGF G2 ga:|2 DGGF G4||

